X:1
T:Komm, Herr Jesu
T:Nach Joh. Seb. Bachs "Beziffertem Bass" (*) für gem. Chor gesetzt von Gustav Beckmann
T:Christoph Weselovius
T:Komm, Herr Jesu
T:CPDL - Creative Commons Attribution Non Commercial 3.0
T:CPDL - Creative Commons Attribution Non Commercial 3.0
C:Gustav Beckmann
Z:Christoph WeseloviusChristoph Weselovius
Z:CPDL - Creative Commons Attribution Non Commercial 3.0
%%score [ ( 1 2 ) ( 3 4 5 ) ]
L:1/8
Q:1/4=80
M:3/4
K:G
V:1 treble nm="Sopran\nAlt"
V:2 treble 
V:3 bass nm="Tenor\nBass"
V:4 bass 
V:5 bass 
V:1
"^Moderato"!p! B3 A G2 |!>(! F2 !breath!F2!>)!"^cresc." B2 | c3 B AG |!>(! F2 F2!>)! z2 | %4
w: ||||
 B2 G2 F2 |!<(! E3 F G2!<)! | A3 B G2 |!>(! F2 F2!>)! z2 |"^cresc." F2 E2 F2 | G2 F2 G2 | A3 G A2 | %11
w: |||||||
 B4 z2 |!f! B2 ^c2 d2 |!<(! ^c3 d B2!<)! | B2 ^c2 ^A2 | B4 z2 |!p! B2 G3 A | %17
w: ||||||
!>(! F2 !breath!F2!>)!"^cresc." B2 | c2 B2 AG | F2 !breath!F2!pp! B2 |!<(! c2 B2 AG!<)! | %21
w: ||||
!>(! F2 F2!>)! z2 |!p! B2 G2 F2 | E3 F!<(! G2 | A3 B!<)! G2 |!>(! F2 !fermata!F2!>)!!pp! GF | %26
w: |||||
[Q:1/4=72]"^rit." F4 !fermata!E2 |] %27
w: * ge!|
V:2
 G2 F2 E2 | E2 ^D2 E2 | E2 F2 E2 | E2 ^D2 x2 | E2 E2 ^D2 | E2 E2 E2 | F2 F2 E2 | E2 ^D2 x2 | %8
w: 1.~Liebs- ter Herr|Je- su, wo|bleibst du so|lan- ge?|Komm doch, mir|wird hier auf|Er- den so|ban- ge,|
w: 2.~Al- les ist|ei- tel, was|un- ter der|Son- ne,|flüch- tig die|Freu- de, ver-|gäng- lich die|Won- ne,|
w: 3.~All- be- reit|schmü- cke dich,|gläu- bi- ge|See- le,|fül- le die|bren- nen- de|Lam- pe mit|Ö- le,|
 B,2 B,2 B,2 | E2 ^D2 E2 | E3 G F2 | G4 x2 | D2 E2 F2 | G3 F DG | F2 G2 E2 | F4 x2 | F2 E2 F2 | %17
w: komm doch und|wenn es dir|al- so ge-|fällt,|nimm mich von|die- ser so *|angst- vol- len|Welt.|Komm doch, Herr|
w: Herr- lich- keit,|Wol- lüs- te,|Reich- tum und|Kunst,|al- les ist|schat- ti- ger *|Ne- bel und|Dunst.|Da- rum, Herr|
w: auch um die|Mit- ter- nacht|fer- tig zu|stehn|und zu der|himm- li- schen *|Hoch- zeit zu|gehn.|Komm doch! ach|
 ^D2 D2 E2 | EF GF E2 | E2 ^D2 B2 | BA GF E2 | E2 ^D2 x2 | E2 E2 ^D2 | E2 E2 E2 | F2 F2 E2 | %25
w: Je- su, wo|1.\-3.~bleibst * du * so|lan- ge? wo|bleibst * du * so|lan- ge?|Komm doch, mir|wird hier auf|Er- den so|
w: Je- su, wo||||||||
w: komm doch! wo||||||||
 E2 ^D2 E2 | (E2 ^D2) E2 |] %27
w: ban- ge, so|ban- * *|
w: ||
w: ||
V:3
!p! B,2 B,2 B,2 |!>(! B,2 !breath!B,2!>)!"^cresc." B,2 | A,3 B, CB, |!>(! B,2 B,2!>)! z2 | %4
 B,2 B,2 B,2 |!<(! G,2 C2 B,2!<)! | B,2 B,2 B,2 |!>(! B,2 B,2!>)! z2 |"^cresc." ^D,2 F,2 B,2 | %9
 B,2 B,2 B,2 | E2 C2 A,2 | D4 z2 |!f! B,2 B,^C B,A, |!<(! B,3 ^A, B,^C!<)! | D2 E2 ^C2 | ^D4 z2 | %16
!p! B,2 B,2 C2 |!>(! B,2 !breath!B,2!>)!"^cresc." B,2 | A,2 B,2 CB, | B,2 !breath!B,2!pp! E2 | %20
!<(! E2 B,2 CB,!<)! |!>(! B,2 B,2!>)! z2 |!p! B,2 B,2 B,2 | G,2 C2!<(! B,2 | B,2 B,2!<)! B,2 | %25
!>(! B,2 !fermata!B,2!>)!!pp! B,2 | (B,3 A,) !fermata!G,2 |] %27
V:4
 E,2 ^D,2 E,2 | B,,2 B,,2 G,2 | A,2 ^D,2 E,2 | B,,2 B,,2 x2 | G,,A,, B,,A,, B,,G,, | C,2 A,,2 E,2 | %6
 E,2 ^D,2 E,2 | B,,2 B,,2 x2 | B,,2 ^C,2 ^D,2 | E,2 B,,2 E,2 | C,2 A,,2 D,2 | G,,4 x2 | %12
 G,F, G,A, G,F, | E,D, E,F, G,E, | F,2 E,2 F,2 | B,,4 x2 | ^D,2 E,2 A,,2 | B,,2 B,,2 G,2 | %18
 A,2 ^D,2 E,2 | B,,2 B,2 G,2 | A,2 ^D,2 E,2 | B,,2 B,,2 x2 | G,A, B,A, B,G, | C,2 A,,2 E,2 | %24
 E,2 ^D,2 E,2 | B,,2 B,,2 E,2 | B,,4 E,2 |] %27
V:5
 x6 | x6 | x6 | x6 | x6 | x6 | x6 | x6 | x6 | x6 | x6 | G,4 z2 | x6 | x6 | x6 | x6 | x6 | x6 | x6 | %19
 x6 | x6 | x6 | x6 | x6 | x6 | x6 | x6 |] %27

